X: 1731
T: SPELLAN THE FIDDLER
M:C|
L:1/8
B:O'NEILL'S 1731
N:"collected by J. O'Neill"
Z:Transcribed by A.LEE WORMAN
K:G
(3D-E-F|G>DB>G d>Bg>d|b>g (3ded c>BA>G|.F(d^cd) .A(dcd)|d>ce>d c>AF>D|
G>BD>G d>Bg>d|b>g (3ded c>BA>G|f>ec>A e>dB>G|(3FGA (3DEF G2:|
|:g2|b>gd>B G>Bd>g|a>fc>A F>Ac>f|a>gb>a c'>ba>g|f>ed>c B>AG>F|
G>Dc>G d>Bg>d|b>g (3ded c>BA>G|f>ec>A e>dB>G|(3FGA (3DEF G2:|


